Sources/FrostedUI/Resources/Icons.xcassets/messagesQuestion12.imageset/messages-question-12.svg

<svg width="12" height="12" viewBox="0 0 12 12" fill="none" xmlns="http://www.w3.org/2000/svg" data-fui-icon="true">
  <path
    d="M9.125 1.125C10.0915 1.125 10.875 1.90851 10.875 2.875V8.125C10.875 9.09151 10.0915 9.875 9.125 9.875H7.77832L6.79785 10.6865C6.33328 11.0712 5.66072 11.0693 5.19824 10.6816L4.23535 9.875H2.875C1.90851 9.875 1.125 9.09152 1.125 8.125V2.875C1.125 1.9085 1.9085 1.125 2.875 1.125H9.125ZM2.875 2.625C2.73693 2.625 2.625 2.73693 2.625 2.875V8.125C2.625 8.26308 2.73692 8.375 2.875 8.375H4.32617C4.58312 8.37505 4.83281 8.45436 5.04199 8.60059L5.12891 8.66699L6.00098 9.39844L6.89062 8.66211L6.97754 8.59668C7.18563 8.4529 7.43312 8.37509 7.6875 8.375H9.125C9.26309 8.375 9.375 8.26309 9.375 8.125V2.875C9.375 2.73692 9.26308 2.625 9.125 2.625H2.875ZM6 6.625C6.27614 6.625 6.5 6.84886 6.5 7.125C6.5 7.40114 6.27614 7.625 6 7.625C5.72386 7.625 5.5 7.40114 5.5 7.125C5.5 6.84886 5.72386 6.625 6 6.625ZM6.06152 3.45703C6.75636 3.45703 7.31134 4.02401 7.31152 4.71387C7.3114 5.13644 7.10266 5.4084 6.90625 5.58008L6.72168 5.7207C6.65317 5.7673 6.60708 5.80883 6.5752 5.85156C6.54639 5.89042 6.51793 5.94453 6.50488 6.03125C6.46364 6.30406 6.20941 6.49212 5.93652 6.45117C5.66377 6.41 5.47586 6.1556 5.5166 5.88281C5.59578 5.35614 5.90518 5.06627 6.15918 4.89355C6.23713 4.84054 6.27423 4.80646 6.29297 4.78125C6.30025 4.77134 6.30351 4.76305 6.30566 4.75684C6.30772 4.75075 6.31148 4.73724 6.31152 4.71387C6.31134 4.56735 6.19517 4.45703 6.06152 4.45703C5.92801 4.45723 5.8117 4.56746 5.81152 4.71387C5.81133 4.98984 5.58754 5.21387 5.31152 5.21387C5.03567 5.21367 4.81172 4.98972 4.81152 4.71387C4.81171 4.02415 5.36678 3.45723 6.06152 3.45703Z"
    fill="currentColor"
  />
</svg>

<svg xmlns="http://www.w3.org/2000/svg" width="12" height="12" fill="none" data-fui-icon="true" viewBox="0 0 12 12"><path fill="currentColor" d="M9.125 1.125c.966 0 1.75.784 1.75 1.75v5.25a1.75 1.75 0 0 1-1.75 1.75H7.778l-.98.812a1.25 1.25 0 0 1-1.6-.005l-.963-.807h-1.36a1.75 1.75 0 0 1-1.75-1.75v-5.25c0-.966.784-1.75 1.75-1.75zm-6.25 1.5a.25.25 0 0 0-.25.25v5.25c0 .138.112.25.25.25h1.451c.257 0 .507.08.716.226l.087.066.872.731.89-.736.087-.065a1.25 1.25 0 0 1 .71-.222h1.437a.25.25 0 0 0 .25-.25v-5.25a.25.25 0 0 0-.25-.25zm3.125 4a.5.5 0 1 1 0 1 .5.5 0 0 1 0-1m.062-3.168c.694 0 1.25.567 1.25 1.257 0 .422-.21.694-.406.866l-.184.14a.6.6 0 0 0-.147.132.4.4 0 0 0-.07.18.5.5 0 0 1-.988-.15c.079-.526.388-.816.642-.988a.6.6 0 0 0 .134-.113.1.1 0 0 0 .013-.024.1.1 0 0 0 .006-.043.253.253 0 0 0-.25-.257c-.134 0-.25.11-.25.257a.5.5 0 0 1-1 0c0-.69.555-1.257 1.25-1.257"/></svg>
